packages/kaspersky-hexa-ui-icons/src/iconsSVGs/24/Reload1.svg

<svg width="24" height="24" viewBox="0 0 24 24" fill="none" xmlns="http://www.w3.org/2000/svg">
<path d="M11.8773 4C9.30984 4 7.02367 5.1723 5.53596 7H7.00018C7.55247 7 8.00018 7.44772 8.00018 8C8.00018 8.55228 7.55247 9 7.00018 9H3.00018C2.4479 9 2.00018 8.55228 2.00018 8V4C2.00018 3.44772 2.4479 3 3.00018 3C3.55247 3 4.00018 3.44772 4.00018 4V5.71885C5.85686 3.44934 8.69743 2 11.8773 2C17.4552 2 22.0002 6.46441 22.0002 12C22.0002 13.667 21.5881 15.2368 20.8597 16.6168L19.36 15.1171C19.7724 14.1583 20.0002 13.1047 20.0002 12C20.0002 7.59446 16.3763 4 11.8773 4Z" fill="black"/>
<path d="M15.1026 19.345C14.1148 19.7663 13.0245 20 11.8773 20C8.03015 20 4.81791 17.3683 3.97255 13.8501C3.84352 13.3131 3.3036 12.9824 2.7666 13.1114C2.2296 13.2405 1.89887 13.7804 2.0279 14.3174C3.0884 18.7309 7.10184 22 11.8773 22C13.5825 22 15.1911 21.5828 16.6029 20.8453L15.1026 19.345Z" fill="black"/>
<path fill-rule="evenodd" clip-rule="evenodd" d="M17.1718 15.7574C17.6954 14.967 18.0002 14.0191 18.0002 13C18.0002 10.2386 15.7617 8 13.0002 8C10.2388 8 8.00023 10.2386 8.00023 13C8.00023 15.7614 10.2388 18 13.0002 18C14.0193 18 14.9672 17.6951 15.7576 17.1716L20.2931 21.7071C20.6836 22.0976 21.3168 22.0976 21.7073 21.7071C22.0979 21.3166 22.0979 20.6834 21.7073 20.2929L17.1718 15.7574ZM10.0002 13C10.0002 11.3431 11.3434 10 13.0002 10C14.6571 10 16.0002 11.3431 16.0002 13C16.0002 14.6569 14.6571 16 13.0002 16C11.3434 16 10.0002 14.6569 10.0002 13Z" fill="black"/>
</svg>

<svg xmlns="http://www.w3.org/2000/svg" width="24" height="24" fill="none" viewBox="0 0 24 24"><path fill="#000" d="M11.877 4C9.31 4 7.024 5.172 5.536 7H7c.552 0 1 .448 1 1s-.448 1-1 1H3c-.552 0-1-.448-1-1V4c0-.552.448-1 1-1s1 .448 1 1v1.719C5.857 3.449 8.697 2 11.877 2 17.455 2 22 6.464 22 12c0 1.667-.412 3.237-1.14 4.617l-1.5-1.5A7.87 7.87 0 0 0 20 12c0-4.405-3.624-8-8.123-8m3.226 15.345c-.988.421-2.078.655-3.225.655-3.847 0-7.059-2.632-7.905-6.15-.129-.537-.669-.868-1.206-.739s-.868.669-.739 1.206C3.088 18.731 7.102 22 11.877 22c1.705 0 3.314-.417 4.726-1.155z"/><path fill="#000" fill-rule="evenodd" d="M17.1718 15.7574c.5236-.7904.8284-1.7383.8284-2.7574 0-2.7614-2.2385-5-5-5s-5 2.2386-5 5 2.2386 5 5 5c1.0191 0 1.967-.3049 2.7574-.8284l4.5355 4.5355c.3905.3905 1.0237.3905 1.4142 0 .3906-.3905.3906-1.0237 0-1.4142zM10.0002 13c0-1.6569 1.3432-3 3-3s3 1.3431 3 3-1.3431 3-3 3-3-1.3431-3-3" clip-rule="evenodd"/></svg>
